!! 00000] TT[00
!! NN
!!!OTL: Liu jiejie
!!!ARE: Asia, China,ÿAnhui, Chaoxian
!! Ethnic Group: Han
!! III, 574, 2)
!!!SCT: C0350
!!!YEM: Copyright 1995, estate of Helmut Schaffrath.
**kern
*ICvox
*Ivox
!! Mixed meters:  4/4; 2/4
*M2/4
*k[b-]
*F:
{8g
8a
8g
8d
4f
8g
8a
=1
8cc
8a
8g
8d
16d
8f
16d
4d}
=2
{4f
4g
2g}
=3
{2g
=4
*M4/4
8cc
8a
8a
8g
8f
4.d}
=5
{4g
4d
8f
4.d
=6
8cc
8a
8a
8g
8f
4.d}
=7
{4g
4d
8f
4.d
=8
4d
8a
8g
8g
8d
4d}
=9
{8a
8d
8f
8f
2g
=10
8a
8d
8f
8f
2g}
=11
{4.a
8g
8g
8f
4d
=12
8f
8d
8f
8g
4f
16g
16f
8d
=13
2.d
4r}
==
!!!AGN: Shange, Tiange. Chang feiniao
!! Wenn man beim Reispflanzen dieses Lied singt, fressen die Voegel die
!!    Saat nicht mehr auf. Daher der geraeuschhafte Schluss.
!!    Einige Verzierungen, Glissandi.
!!!ONB: ESAC (Essen Associative Code) Database: CHINA
!!!AMT: irregular
!!!AIN: vox
!!!EED: Helmut Schaffrath
!!!EEV: 1.0
*-
